rospo-icon-theme-classic-common/64x64/apps/oracle-sqldeveloper.svg

<svg height="64" viewBox="0 0 64 64" width="64" xmlns="http://www.w3.org/2000/svg"><path d="m32 33a28 14 0 0 0 -28.0000002 14 28 14 0 0 0 28.0000002 14 28 14 0 0 0 28-14 28 14 0 0 0 -28-14z" opacity=".2"/><path d="m32 32a28 14 0 0 0 -28.0000002 14 28 14 0 0 0 28.0000002 14 28 14 0 0 0 28-14 28 14 0 0 0 -28-14z" fill="#696969"/><path d="m32 19a28 14 0 0 0 -28.0000002 14 28 14 0 0 0 28.0000002 14 28 14 0 0 0 28-14 28 14 0 0 0 -28-14z" opacity=".2"/><path d="m32 18a28 14 0 0 0 -28.0000002 14 28 14 0 0 0 28.0000002 14 28 14 0 0 0 28-14 28 14 0 0 0 -28-14z" fill="#919191"/><path d="m32 5a28 14 0 0 0 -28.0000002 14 28 14 0 0 0 28.0000002 14 28 14 0 0 0 28-14 28 14 0 0 0 -28-14z" opacity=".2"/><path d="m32 4a28 14 0 0 0 -28.0000002 14 28 14 0 0 0 28.0000002 14 28 14 0 0 0 28-14 28 14 0 0 0 -28-14z" fill="#e4e4e4"/><path d="m32 4a28 14 0 0 0 -28 14 28 14 0 0 0  .0410156.410156 28 14 0 0 1 27.9589844-13.410156 28 14 0 0 1 27.953125 13.537109 28 14 0 0 0  .046875-.537109 28 14 0 0 0 -28-14z" fill="#fff" opacity=".2"/><path d="m63.958 45.848a16 16 0 0 1 -15.958 15.152 16 16 0 0 1 -15.958-14.848 16 16 0 0 0 -.042.848 16 16 0 0 0 16 16 16 16 0 0 0 16-16 16 16 0 0 0 -.04296-1.15234z" fill-rule="evenodd" opacity=".2"/><circle cx="48" cy="46" fill="#0ab884" fill-rule="evenodd" r="16" stroke-width="2"/><path d="m57.646715 45.770672-6.928203 4-6.928203 4v-8-8l6.928203 4z" fill="#fff" transform="matrix(1.010363 0 0 1 -1.244108 .229328)"/></svg>

<svg xmlns="http://www.w3.org/2000/svg" width="64" height="64" version="1.1" viewBox="0 0 64 64">
 <path style="opacity:0.2" d="M 32,33 A 28,14 0 0 0 3.9999998,47 28,14 0 0 0 32,61 28,14 0 0 0 60,47 28,14 0 0 0 32,33 Z"/>
 <path style="fill:#696969" d="M 32,32 A 28,14 0 0 0 3.9999998,46 28,14 0 0 0 32,60 28,14 0 0 0 60,46 28,14 0 0 0 32,32 Z"/>
 <path style="opacity:0.2" d="M 32,19 A 28,14 0 0 0 3.9999998,33 28,14 0 0 0 32,47 28,14 0 0 0 60,33 28,14 0 0 0 32,19 Z"/>
 <path style="fill:#919191" d="M 32,18 A 28,14 0 0 0 3.9999998,32 28,14 0 0 0 32,46 28,14 0 0 0 60,32 28,14 0 0 0 32,18 Z"/>
 <path style="opacity:0.2" d="M 32,5 A 28,14 0 0 0 3.9999998,19 28,14 0 0 0 32,33 28,14 0 0 0 60,19 28,14 0 0 0 32,5 Z"/>
 <path style="fill:#cccccc" d="M 32,4 A 28,14 0 0 0 3.9999998,18 28,14 0 0 0 32,32 28,14 0 0 0 60,18 28,14 0 0 0 32,4 Z"/>
 <path style="opacity:0.2;fill:#ffffff" d="M 32 4 A 28 14 0 0 0 4 18 A 28 14 0 0 0 4.0410156 18.410156 A 28 14 0 0 1 32 5 A 28 14 0 0 1 59.953125 18.537109 A 28 14 0 0 0 60 18 A 28 14 0 0 0 32 4 z"/>
 <path style="opacity:0.2;fill-rule:evenodd" d="M 63.958,45.848 A 16,16 0 0 1 48,61 16,16 0 0 1 32.042,46.152 16,16 0 0 0 32,47 16,16 0 0 0 48,63 16,16 0 0 0 64,47 16,16 0 0 0 63.95704,45.84766 Z"/>
 <g transform="matrix(2,0,0,2,6,0)">
  <circle style="fill:#0ab884;fill-rule:evenodd" cx="21" cy="23" r="8"/>
 </g>
 <path style="fill:#ffffff" d="m 57.646715,45.770672 -6.928203,4 -6.928203,4 0,-8 0,-8 6.928203,4 z" transform="matrix(1.010363,0,0,1,-1.2441079,0.2293283)"/>
</svg>
